assets/icons/18px/outline/link-18px.svg

<svg fill="none" height="18" width="18" xmlns="http://www.w3.org/2000/svg"><path d="m6.9 7a.5.5 0 1 0 0-1zm0 5a.5.5 0 1 0 0-1zm4.2-1a.5.5 0 0 0 0 1zm0-5a.5.5 0 1 0 0 1zm-6.1 5.5v-.5zm0-4.5h1.9v-1h-1.9zm1.9 4h-1.9v1h1.9zm6.1 0h-1.9v1h1.9zm-1.9-4h1.9v-1h-1.9zm-9.1 2a3 3 0 0 0 3 3v-1a2 2 0 0 1 -2-2zm13 0a2 2 0 0 1 -2 2v1a3 3 0 0 0 3-3zm1 0a3 3 0 0 0 -3-3v1a2 2 0 0 1 2 2zm-13 0a2 2 0 0 1 2-2v-1a3 3 0 0 0 -3 3z" fill="#fff"/><path d="m11.5 9h-5" stroke="#fff" stroke-linecap="round"/></svg>

<svg width="18" height="18" fill="none" xmlns="http://www.w3.org/2000/svg"><path d="M6.9 7a.5.5 0 1 0 0-1v1zm0 5a.5.5 0 1 0 0-1v1zm4.2-1a.5.5 0 0 0 0 1v-1zm0-5a.5.5 0 1 0 0 1V6zM5 11.5V11v.5zM5 7h1.9V6H5v1zm1.9 4H5v1h1.9v-1zm6.1 0h-1.9v1H13v-1zm-1.9-4H13V6h-1.9v1zM2 9a3 3 0 0 0 3 3v-1a2 2 0 0 1-2-2H2zm13 0a2 2 0 0 1-2 2v1a3 3 0 0 0 3-3h-1zm1 0a3 3 0 0 0-3-3v1a2 2 0 0 1 2 2h1zM3 9a2 2 0 0 1 2-2V6a3 3 0 0 0-3 3h1z" fill="#fff"/><path d="M11.5 9h-5" stroke="#fff" stroke-linecap="round"/></svg>
